layouts/icon-pack/hand_to_hand.svg

<?xml version="1.0" encoding="UTF-8"?>
<svg width="1200pt" height="1200pt" version="1.1" viewBox="0 0 1200 1200" xmlns="http://www.w3.org/2000/svg">
 <g fill="#fff">
  <path d="m576.56 276.77 81.047-107.41c10.375-13.75 14.863-31.059 12.477-48.117-2.3867-17.059-11.453-32.469-25.203-42.844l-8.4141-6.3281c-13.742-10.379-31.051-14.871-48.105-12.484-17.059 2.3867-32.465 11.457-42.832 25.211l-94.43 125.16c-3.6992 4.8594-4.5977 11.297-2.3711 16.98 2.2266 5.6875 7.2539 9.8047 13.27 10.863 28.578 4.8711 55.559 16.559 78.656 34.078l11.18 8.4375c3.7383 2.832 8.457 4.0508 13.102 3.3867 4.6445-0.66406 8.8281-3.1602 11.625-6.9258z"/>
  <path d="m702.94 394.22c3.5391 2.7734 8.043 4.0117 12.504 3.4453 4.457-0.56641 8.5078-2.8984 11.238-6.4688l78.398-103.9 3.1641-4.1953c10.367-13.746 14.848-31.043 12.461-48.094-2.3867-17.047-11.445-32.449-25.188-42.82l-8.3906-6.3281c-13.746-10.406-31.07-14.922-48.145-12.543-17.078 2.3789-32.508 11.453-42.887 25.223l-81.562 108.09c-2.6719 3.543-3.8281 8.0039-3.2148 12.398 0.61719 4.3945 2.9531 8.3672 6.4961 11.039l84.914 64.055z"/>
  <path d="m695.7 628.76c31.219 23.766 76.172 16.125 99.797-15.211l159.12-210.94c22.734-30.141 19.219-73.547-9.75-97.734-14.762-12.32-33.922-18.059-53.023-15.879-19.102 2.1758-36.48 12.082-48.086 27.41l-98.133 130.08c-4.5352 5.8594-7.1055 13.008-7.3359 20.414-0.35156 20.367-7.5781 40.016-20.508 55.758-10.957 13.34-22.746 25.973-35.297 37.828-5.4883 5.2148-9.2188 12.008-10.668 19.438-1.4492 7.4336-0.54688 15.129 2.582 22.023 4.7539 10.574 12.078 19.789 21.305 26.812z"/>
  <path d="m1106.6 514.78c12.5-14.754 18.371-34.004 16.234-53.223-2.1367-19.219-12.098-36.711-27.531-48.355-15.438-11.648-34.988-16.422-54.059-13.203-19.066 3.2188-35.965 14.148-46.723 30.219l-161.58 214.15c-13.395 20.094-15.543 45.652-5.6875 67.695 9.8555 22.047 30.332 37.492 54.238 40.91 23.902 3.418 47.887-5.668 63.527-24.066z"/>
  <path d="m665.02 1096.1 100.78-133.59c26.523-35.16 37.996-79.418 31.891-123.04-6.1055-43.617-29.285-83.027-64.445-109.55l-108.38-81.75c-3.9961-2.9609-8.1445-5.7148-12.422-8.25l-66.047-38.766c-4.7344-2.7852-10.344-3.6758-15.703-2.4922-5.3633 1.1797-10.078 4.3438-13.203 8.8594-3.1289 4.5117-4.4297 10.043-3.6484 15.477 8.4375 58.125 0.53906 135.49-54.422 226.41-3.9883 6.5742-10.422 11.305-17.891 13.148-7.4648 1.8438-15.359 0.65625-21.953-3.3047-0.86719-0.53906-1.7109-1.1016-2.5078-1.7109-5.7305-4.3398-9.6484-10.648-11.004-17.707-1.3555-7.0586-0.046875-14.367 3.668-20.52 114.33-189.05-6.5391-301.29-11.719-305.98-5.8711-5.2812-9.3438-12.719-9.625-20.613-0.28516-7.8906 2.6484-15.559 8.125-21.246 4.7617-4.6992 10.961-7.6719 17.605-8.4453 6.6445-0.77344 13.359 0.69922 19.074 4.1797l141.02 82.805c7.3555 4.3164 15.805 6.4062 24.324 6.0195s16.742-3.2344 23.676-8.1992l0.23438-0.1875c6.2109-4.4531 12.211-9.2578 17.906-14.203 14.5-12.766 27.945-26.688 40.195-41.625 1.7852-2.1875 3.3555-4.5391 4.6875-7.0312 4.5898-8.6328 5.957-18.617 3.8516-28.164-2.1055-9.5508-7.543-18.035-15.336-23.938l-98.391-74.109-19.336-14.602-19.312-14.508-25.219-19.031c-23.242-17.523-51.586-26.945-80.691-26.824-29.109 0.125-57.371 9.7852-80.465 27.504-9.4961 7.3047-17.969 15.852-25.195 25.406l-212.11 281.11c-1.2891 1.7344-2.5781 3.4688-3.8203 5.25-52.477 74.531-33.914 177.77 39.281 232.03l353.72 262.5c49.5 36.75 119.67 29.812 159.38-17.344 1.1719-1.1719 2.2969-2.5547 3.4219-3.9609z"/>
 </g>
</svg>

<?xml version="1.0" encoding="UTF-8" standalone="no"?>
<!DOCTYPE svg PUBLIC "-//W3C//DTD SVG 1.1//EN" "http://www.w3.org/Graphics/SVG/1.1/DTD/svg11.dtd">
<svg width="100%" height="100%" viewBox="0 0 495 512" version="1.1" xmlns="http://www.w3.org/2000/svg" xmlns:xlink="http://www.w3.org/1999/xlink" xml:space="preserve" xmlns:serif="http://www.serif.com/" style="fill-rule:evenodd;clip-rule:evenodd;stroke-linejoin:round;stroke-miterlimit:2;">
    <g transform="matrix(1,0,0,1,-79.2539,-58.9604)">
        <g transform="matrix(0.473241,0,0,0.473241,41.7477,31.0579)">
            <path d="M576.56,276.77L657.607,169.36C667.982,155.61 672.47,138.301 670.084,121.243C667.697,104.184 658.631,88.774 644.881,78.399L636.467,72.071C622.725,61.692 605.416,57.2 588.362,59.587C571.303,61.974 555.897,71.044 545.53,84.798L451.1,209.958C447.401,214.817 446.502,221.255 448.729,226.938C450.955,232.625 455.983,236.743 461.999,237.801C490.577,242.672 517.558,254.36 540.655,271.879L551.835,280.316C555.573,283.148 560.292,284.367 564.937,283.703C569.581,283.039 573.765,280.543 576.562,276.777L576.56,276.77Z" style="fill:white;fill-rule:nonzero;"/>
            <path d="M702.94,394.22C706.479,396.993 710.983,398.232 715.444,397.665C719.901,397.099 723.952,394.767 726.682,391.197L805.08,287.297L808.244,283.101C818.611,269.355 823.092,252.058 820.705,235.007C818.318,217.96 809.26,202.558 795.517,192.187L787.127,185.859C773.381,175.453 756.057,170.937 738.982,173.316C721.904,175.695 706.474,184.769 696.095,198.539L614.533,306.629C611.861,310.172 610.704,314.633 611.318,319.027C611.935,323.422 614.271,327.394 617.814,330.066L702.728,394.121L702.94,394.22Z" style="fill:white;fill-rule:nonzero;"/>
            <path d="M695.7,628.76C726.919,652.526 771.872,644.885 795.497,613.549L954.617,402.609C977.351,372.468 973.836,329.062 944.867,304.875C930.105,292.555 910.945,286.816 891.844,288.996C872.742,291.172 855.364,301.078 843.758,316.406L745.625,446.486C741.09,452.345 738.52,459.494 738.289,466.9C737.938,487.267 730.711,506.916 717.781,522.658C706.824,535.998 695.035,548.631 682.484,560.486C676.996,565.701 673.265,572.494 671.816,579.924C670.367,587.358 671.269,595.053 674.398,601.947C679.152,612.521 686.476,621.736 695.703,628.759L695.7,628.76Z" style="fill:white;fill-rule:nonzero;"/>
            <path d="M1106.6,514.78C1119.1,500.026 1124.97,480.776 1122.83,461.557C1120.7,442.338 1110.74,424.846 1095.3,413.202C1079.87,401.554 1060.32,396.78 1041.24,399.999C1022.18,403.218 1005.28,414.147 994.521,430.218L832.941,644.368C819.546,664.462 817.398,690.02 827.253,712.063C837.109,734.11 857.585,749.555 881.491,752.973C905.393,756.391 929.378,747.305 945.018,728.907L1106.6,514.78Z" style="fill:white;fill-rule:nonzero;"/>
            <path d="M665.02,1096.1L765.8,962.51C792.323,927.35 803.796,883.092 797.691,839.47C791.585,795.853 768.406,756.443 733.246,729.92L624.866,648.17C620.87,645.209 616.721,642.455 612.444,639.92L546.397,601.154C541.663,598.369 536.053,597.478 530.694,598.662C525.331,599.842 520.616,603.006 517.491,607.521C514.362,612.033 513.061,617.564 513.843,622.998C522.28,681.123 514.382,758.488 459.421,849.408C455.432,855.982 448.999,860.713 441.53,862.556C434.065,864.4 426.171,863.212 419.577,859.252C418.709,858.712 417.866,858.15 417.069,857.541C411.338,853.201 407.42,846.893 406.065,839.834C404.709,832.775 406.018,825.467 409.733,819.314C524.063,630.264 403.194,518.024 398.014,513.334C392.143,508.052 388.67,500.615 388.389,492.721C388.104,484.83 391.037,477.162 396.514,471.475C401.275,466.775 407.475,463.803 414.119,463.029C420.763,462.256 427.478,463.729 433.193,467.209L574.213,550.014C581.568,554.33 590.018,556.42 598.537,556.034C607.056,555.647 615.279,552.799 622.213,547.834L622.447,547.647C628.658,543.194 634.658,538.389 640.353,533.444C654.853,520.678 668.298,506.756 680.548,491.819C682.333,489.631 683.904,487.28 685.236,484.788C689.825,476.155 691.193,466.171 689.087,456.624C686.982,447.073 681.544,438.589 673.751,432.686L575.36,358.577L556.024,343.975L536.712,329.467L511.493,310.436C488.251,292.913 459.907,283.491 430.802,283.612C401.693,283.737 373.431,293.397 350.337,311.116C340.841,318.42 332.368,326.968 325.142,336.522L113.032,617.632C111.743,619.366 110.454,621.1 109.212,622.882C56.735,697.413 75.298,800.652 148.493,854.912L502.213,1117.41C551.713,1154.16 621.883,1147.22 661.593,1100.07C662.765,1098.9 663.89,1097.51 665.015,1096.11L665.02,1096.1Z" style="fill:white;fill-rule:nonzero;"/>
        </g>
    </g>
</svg>
